X: 16
T: #16
M: 3/4
L: 1/4
C: Erich Leopold Elbre
H: 13 dets. 1981
K: C octave=-1
g_gf || e3 | g3 | age | egc' | c'>ba | c'2a | bd'>b | f3 ||
f^fg | d'bg | f^fg | d'bg | g2a | bag | c'>eg | c'3 |
|: a_a=a | d'c'a | g_g=g | e'c'g |
f'd'b | g_gf |1 egd' | c'3 :|2 ega | c'3 ||
|: a2f | f2a | c'2e | e2g | b2c' | d'2g |1 gag | e'2c' :|2 g_gf | e3 |]
c'ba |  b2f | age | g2c' | a2d' | c'2a | b2a | f3 ||
d'c'd' | c'2b | a_a=a | f2d | g2a | c'2a | d'3 |]